X: 02116
T: ROBIN THE BOZE
C: Bob McQuillen 1 Apr'76
B: Bob's Note Book 1&2 #117
%R: jig
Z: 2019 John Chambers <jc:trillian.mit.edu>
M: 6/8
L: 1/8
K: G
GA \
| BAB AGE | DGG AGA | BAB dBd | efe eGA |\
| BAB AGE | DGB AGA | BdB AGA | G4 :|
|: GA \
| BAB dBd | ega gfe | ded dBd | efe eGA |\
| BAB dBd | ega gGE | DGB AGA | G4 :|
%%begintext align
%% Rosin's Cousin.
%%endtext

%%sep 1 1 500

%%sep 1 1 500

